X: 1112
T: Crabs in the Skillet
R:double jig
B:O'Neill's 1112
Z:Transcribed by henrik.norbeck@mailbox.swipnet.se
M:6/8
L:1/8
K:Gm
D|:G3 d2^F|(G2A) (B2c)|ded cBA|dcB AG^F|
G3 d2^F|(G2A) (B2d)|cAc f=ed|1 cAF F=EF:|2 cAF G2||
d|gag gf=e|fgf f=ed|cd=e fed|cAF G2d|
gag gf=e|fgf f=ed|cd=e fed|1 cAF F2:|2 cAF F=EF||
G2z A2z|B2z c2z|ded cBA|dcB AG^F|
G2z A2z|B2z d2z|cAc f=ed|1 cAF F=EF:|2 cAF G2||


